X: 149
T:Tommy Bhetty's Waltz
M:3/4
L:1/8
F:http://blackrosetheband.googlepages.com/ABCTUNES.ABC May 2009
K:G
D|"G"G3 BdB|G3 BdB|d2 b3 a|"C"ga fg ef|
"G"d3 e d2|B3 ABG|"D"D2 F2 A2|c2 B2 A2|
"G"d2 Bc dB|d2 b3 a|"C"g2 b3 a|ga fg ef|
"G"d2 g2 Bc|"D"d3 cAF|"G"G2 B2 "C"A2|1 "G"G4 D :|2 "G"G3 gfg|
|:"D"a2 f2 d2|A2 F2 D2|"C"C2 b3 a|ga fg ef|
"G"d3 e d2|B3 ABG|"D"D2 F2 A2|c2 B2 A2|
"G"d2 Bc dB|d2 b3 a|"C"g2 b3a|ga fg ef|
"G"d2 g2 Bc|"D"d3 cAF|"G"G2 B2 "C"A2|1 "G"G3 g fg:|2 "G"G6||

